logos/hootsuite.svg

<?xml version="1.0" encoding="UTF-8"?>
<svg width="512px" height="101px" viewBox="0 0 512 101" version="1.1" xmlns="http://www.w3.org/2000/svg" preserveAspectRatio="xMidYMid">
    <title>Hootsuite</title>
    <g>
        <path d="M137.084089,79.533912 L126.683377,79.533912 L126.683377,79.533912 L126.683377,32.6573436 L126.683377,32.6573436 L137.084089,32.6573436 L137.084089,32.6573436 L137.084089,53.019191 L137.084089,53.019191 L171.58245,53.019191 L171.58245,53.019191 L171.58245,32.6573436 L171.58245,32.6573436 L181.983162,32.6573436 L181.983162,32.6573436 L181.983162,79.533912 L181.983162,79.533912 L171.58245,79.533912 L171.58245,79.533912 L171.58245,61.8089245 L171.58245,61.8089245 L137.084089,61.8089245 L137.084089,61.8089245 L137.084089,79.533912 L137.084089,79.533912 Z M211.388345,80.7059179 C204.503044,80.7059179 198.961231,78.9234577 194.762301,75.3585337 C190.562166,71.794819 188.463305,67.0820434 188.463305,61.2226232 C188.463305,55.363203 190.562166,50.6510321 194.762301,47.0861081 C198.961231,43.5223934 204.503044,41.7393285 211.388345,41.7393285 C218.321348,41.7393285 223.887918,43.5223934 228.088055,47.0861081 C232.286983,50.6510321 234.387052,55.363203 234.387052,61.2226232 C234.387052,67.0820434 232.286983,71.794819 228.088055,75.3585337 C223.887918,78.9234577 218.321348,80.7059179 211.388345,80.7059179 Z M211.388345,72.648613 C215.391638,72.648613 218.614802,71.5991822 221.057233,69.4991141 C223.497853,67.4002536 224.719371,64.6414234 224.719371,61.2226232 C224.719371,57.7561217 223.497853,54.9725352 221.057233,52.8724665 C218.614802,50.773606 215.391638,49.7229682 211.388345,49.7229682 C207.432754,49.7229682 204.234346,50.7850791 201.793123,52.9092997 C199.351295,55.0335204 198.130985,57.8056347 198.130985,61.2226232 C198.130985,64.6414234 199.351295,67.4002536 201.793123,69.4991141 C204.234346,71.5991822 207.432754,72.648613 211.388345,72.648613 Z M261.950584,80.7059179 C255.065283,80.7059179 249.523469,78.9234577 245.32454,75.3585337 C241.124405,71.794819 239.025543,67.0820434 239.025543,61.2226232 C239.025543,55.363203 241.124405,50.6510321 245.32454,47.0861081 C249.523469,43.5223934 255.065283,41.7393285 261.950584,41.7393285 C268.883587,41.7393285 274.450156,43.5223934 278.650293,47.0861081 C282.849221,50.6510321 284.94929,55.363203 284.94929,61.2226232 C284.94929,67.0820434 282.849221,71.794819 278.650293,75.3585337 C274.450156,78.9234577 268.883587,80.7059179 261.950584,80.7059179 Z M261.950584,72.648613 C265.953877,72.648613 269.177041,71.5991822 271.619472,69.4991141 C274.060092,67.4002536 275.28161,64.6414234 275.28161,61.2226232 C275.28161,57.7561217 274.060092,54.9725352 271.619472,52.8724665 C269.177041,50.773606 265.953877,49.7229682 261.950584,49.7229682 C257.994993,49.7229682 254.796585,50.7850791 252.355361,52.9092997 C249.913534,55.0335204 248.693224,57.8056347 248.693224,61.2226232 C248.693224,64.6414234 249.913534,67.4002536 252.355361,69.4991141 C254.796585,71.5991822 257.994993,72.648613 261.950584,72.648613 Z M304.1633,80.2657368 C299.661372,80.2657368 297.091234,78.204426 295.70494,76.3284847 L295.624753,76.218366 C294.28244,74.3492003 293.216995,71.9111734 293.177994,66.6504222 L293.176888,50.4553947 L293.176888,50.4553947 L287.903169,50.4553947 L287.903169,50.4553947 L287.903169,42.9113309 L287.903169,42.9113309 L294.641743,42.9113309 L294.641743,42.9113309 L294.641743,32.6573459 L294.641743,32.6573459 L303.5776,32.6573459 L303.5776,32.6573459 L303.5776,42.9113309 L303.5776,42.9113309 L314.124434,42.9113309 L314.124434,42.9113309 L314.124434,50.4553947 L314.124434,50.4553947 L303.5776,50.4553947 L303.5776,50.4553947 L303.5776,64.1523322 L303.5776,64.1523322 C303.500311,68.2443855 304.154243,69.7364126 305.147519,70.7278768 C306.890732,72.4680713 312.213361,71.2888202 314.124434,70.0697184 L314.124434,78.0068645 L314.124434,78.0068645 C311.896358,79.5562547 307.873743,80.2657368 304.1633,80.2657368 Z M340.627056,80.7059179 C334.132423,80.7059179 327.589485,79.7537032 320.997637,77.8492702 L320.997637,69.4991141 L320.997637,69.4991141 C326.515297,71.5991822 332.496688,72.648613 338.942412,72.648613 L339.703196,72.6459013 C343.945179,72.6151683 347.011962,72.3231899 348.903546,71.7694577 C350.905193,71.1837577 351.906922,70.1349315 351.906922,68.6205634 C351.906922,67.2046173 350.795902,66.2161728 348.574467,65.654021 C346.457665,65.1197883 343.898886,64.7728618 340.89761,64.6142843 L340.4441,64.5919104 C337.245088,64.4457871 334.046681,64.1650134 330.848877,63.7495886 C327.65047,63.3353716 324.939944,62.3209626 322.718509,60.7099844 C320.49647,59.0984024 319.38666,56.8280584 319.38666,53.8983483 C319.38666,49.8950554 321.314639,46.8663205 325.172413,44.8157639 C329.028979,42.7646051 334.278546,41.7393285 340.919906,41.7393285 C346.144113,41.7393285 352.247474,42.4240539 359.231197,43.7904862 L359.231197,51.8471888 L359.231197,51.8471888 C353.22505,50.5779703 347.486997,49.942757 342.018849,49.942757 C333.716998,49.942757 329.567582,51.2131836 329.567582,53.7516212 C329.567582,55.0220479 330.68947,55.9126751 332.936265,56.4253137 C335.063664,56.9109715 337.607806,57.2551863 340.569203,57.4553907 L341.066633,57.4874243 C344.23968,57.6830602 347.426012,58.0121394 350.625023,58.4758693 C353.822827,58.9408066 356.544824,60.0029171 358.79162,61.6622005 C361.037206,63.3226914 362.160906,65.6425485 362.160906,68.6205634 C362.160906,72.7222783 360.256474,75.7618828 356.448214,77.7393764 C352.639349,79.71687 347.36563,80.7059179 340.627056,80.7059179 Z M401.48257,42.9113332 L411.883886,42.9113332 L411.883886,42.9113332 L411.883886,79.5333109 L411.883886,79.5333109 L400.457896,79.5333109 L400.457896,79.5333109 L401.922751,64.4451842 L401.922751,64.4451842 L401.336447,64.4451842 L401.336447,64.4451842 C399.626443,75.2854731 393.620296,80.7053156 383.318006,80.7053156 C378.044891,80.6068937 374.187117,78.8866256 371.745893,75.5414905 C369.347669,72.2572764 368.127145,66.8168602 368.084319,59.221385 L368.083151,42.9113332 L368.083151,42.9113332 L378.484467,42.9113332 L378.484467,42.9113332 L378.484467,57.5604866 C378.484467,63.0787511 379.264596,67.0083787 380.827873,69.3523882 C382.389942,71.6963971 384.95374,72.8684018 388.518664,72.8684018 C392.474255,72.8684018 395.62315,71.0623919 397.967159,67.4479558 C400.257896,63.9168461 401.428719,59.243332 401.480755,53.4268502 L401.48257,42.9113332 L401.48257,42.9113332 Z M425.999845,39.3916947 C423.996991,39.3916947 422.434922,38.8917365 421.31243,37.8900073 C420.18873,36.8900897 419.627786,35.4119509 419.627786,33.4586104 C419.627786,31.5058723 420.18873,30.0416216 421.31243,29.0640455 C422.434922,28.0876765 423.996991,27.5991891 425.999845,27.5991891 C428.051005,27.5991891 429.649906,28.0876765 430.797759,29.0640455 C431.945007,30.0416216 432.519235,31.5058723 432.519235,33.4586104 C432.519235,37.4135976 430.345501,39.3916947 425.999845,39.3916947 Z M431.34723,79.5333109 L420.945915,79.5333109 L420.945915,79.5333109 L420.945915,42.9113321 L420.945915,42.9113321 L431.34723,42.9113321 L431.34723,42.9113321 L431.34723,79.5333109 L431.34723,79.5333109 Z M489.953509,80.7059179 C483.312149,80.7059179 477.977445,78.9234577 473.949396,75.3585337 C469.920743,71.794819 467.907019,67.0820434 467.907019,61.2226232 C467.907019,55.363203 469.920743,50.6510321 473.949396,47.0861081 C477.977445,43.5223934 483.312149,41.7393285 489.953509,41.7393285 C496.496448,41.7393285 501.782244,43.2663749 505.810896,46.3174525 C509.761483,49.3110392 511.821518,53.2310249 511.992143,58.0796883 L512,58.4307591 C512,59.0789078 512,64.3721219 512,64.3721219 L477.868154,64.3721219 L477.868154,64.3721219 C478.453854,67.3513443 480.003847,69.4997181 482.51934,70.8178459 C485.033626,72.1359736 488.732596,72.79534 493.615647,72.79534 L494.3059,72.7908142 C500.282496,72.7158835 503.104445,71.7245341 506.14058,70.5980576 L506.431706,70.4803448 C507.398859,70.0768971 510.088084,68.8950981 510.388416,68.766687 L510.388416,77.1168431 L510.388416,77.1168431 C506.72628,78.5333933 503.527268,79.4856092 500.793194,79.973492 C498.057913,80.4613736 494.445289,80.7059179 489.953509,80.7059179 Z M477.648365,59.318191 L502.111926,58.7324905 L502.111926,58.7324905 C501.965803,55.5099301 500.914561,53.2021498 498.962428,51.8103562 C497.008483,50.4185632 494.006315,49.7229682 489.953509,49.7229682 C486.046827,49.7229682 483.105041,50.4680753 481.127547,51.9570833 C479.150053,53.4472987 477.989521,55.9005985 477.648365,59.318191 Z M454.545829,80.2657368 C450.043901,80.2657368 447.473762,78.204426 446.087469,76.3284847 L446.007282,76.218366 C444.664968,74.3492003 443.599523,71.9111734 443.560523,66.6504222 L443.559417,50.4553947 L443.559417,50.4553947 L438.285698,50.4553947 L438.285698,50.4553947 L438.285698,42.9113309 L438.285698,42.9113309 L445.024271,42.9113309 L445.024271,42.9113309 L445.024271,32.6573459 L445.024271,32.6573459 L453.960128,32.6573459 L453.960128,32.6573459 L453.960128,42.9113309 L453.960128,42.9113309 L464.506963,42.9113309 L464.506963,42.9113309 L464.506963,50.4553947 L464.506963,50.4553947 L453.960128,50.4553947 L453.960128,50.4553947 L453.960128,64.1523322 L453.960128,64.1523322 C453.88284,68.2443855 454.536772,69.7364126 455.530047,70.7278768 C457.273261,72.4680713 462.595889,71.2888202 464.506963,70.0697184 L464.506963,78.0068645 L464.506963,78.0068645 C462.278887,79.5562547 458.256272,80.2657368 454.545829,80.2657368 Z" fill="#FF4C46"></path>
        <g>
            <path d="M10.0570038,0.833474971 C10.2769379,0.212103411 10.9379943,-0.126779241 11.5637995,0.0440925377 L11.652909,0.0719950491 C11.652909,0.0719950491 31.5412311,7.63259821 45.4143273,12.9064959 C47.0104829,12.6436457 48.5952633,12.51283 50.154534,12.5240016 C56.0466176,12.5648355 61.6109324,13.8876041 67.1909602,17.183713 L99.6645192,14.4952752 L99.6645192,14.4952752 C100.048527,14.4781881 100.41131,14.6720308 100.610335,15.0010156 C100.894012,15.4699664 100.768086,16.0722783 100.33493,16.3907873 L100.242944,16.4511738 C99.8400004,16.6858707 89.6692892,22.6098649 79.9565833,28.2670911 C80.2843506,28.6428423 80.6127079,29.0267573 80.9420016,29.4187514 C90.184214,40.4390761 95.8064367,56.385234 98.4915376,65.6054289 C100.077166,71.0507937 99.0474428,76.9236019 95.7038813,81.5047446 C89.6685493,89.7647684 76.7975796,101.009813 51.5458791,100.830578 C23.9776061,100.639675 9.73810671,86.9241055 2.89671156,78.4947715 C-0.0185578246,74.8737281 -0.796877538,69.9789215 0.851424287,65.6321752 L1.36319241,64.2939889 C5.40044084,53.7936327 12.9214571,35.5564103 18.9459632,28.7751915 C22.5728635,24.6974953 26.7553056,21.1766994 31.17404,18.4649597 L10.4388984,2.21430388 L10.4388984,2.21430388 C10.0343732,1.87978047 9.88182463,1.32828788 10.0570038,0.833474971 Z" fill="#FF4C46"></path>
            <path d="M50.7612601,72.2160816 C50.8054461,72.1024794 50.9333296,72.0464086 51.0469329,72.0905948 C55.4530885,74.6200053 60.7427469,75.0857046 65.5164068,73.3755012 L65.7912278,73.2744207 C65.8765226,73.2346637 65.9778137,73.2565044 66.039193,73.3279012 C66.1040977,73.4032775 66.1060353,73.5114986 66.0498863,73.5885666 L60.0067138,80.2431118 L60.0067138,80.2431118 C59.6225432,80.6630054 58.9739199,80.700721 58.5436641,80.3281049 C56.3091492,78.4078885 52.577012,74.3961272 50.7885147,72.4262256 C50.7441004,72.3654389 50.7339644,72.2862343 50.7612601,72.2160816 Z M59.1510523,38.1357878 C74.7784866,27.2630106 83.2504338,36.7010671 88.003886,47.1707394 C91.4379677,54.7162746 92.6539974,68.8430047 81.5061432,71.0079119 C72.9667832,72.6731783 65.0760865,64.0217026 59.2403188,55.9443851 C58.6412635,55.1172264 57.4849913,54.9323041 56.6578325,55.53136 C56.5019655,55.6442151 56.3648095,55.780754 56.2510325,55.9358416 L56.0133796,56.2665083 C52.0187029,61.8678369 42.4928813,77.0953869 28.3957894,73.2414689 C14.7928154,69.5175341 11.8039689,54.2159674 17.4611412,43.638425 C25.832447,27.6888297 38.0617735,22.4919917 59.1510523,38.1357878 Z M56.9298488,60.0223749 C57.4688379,59.5041125 58.3116502,59.4965463 58.8593743,59.988033 L58.9380317,60.0644687 L58.9380317,60.0644687 L66.4060147,68.5743555 L66.4060147,68.5743555 C66.4456542,68.6196173 66.4798676,68.6696819 66.5076347,68.7230286 C66.7006352,69.0935807 66.5566897,69.5503978 66.1861386,69.7433986 C63.9380739,70.8893845 61.4608701,71.5147472 58.9382585,71.5729168 C55.6177048,71.5455386 52.2193456,69.3416317 50.8282458,68.3285126 L50.7713805,68.2825406 L50.7713805,68.2825406 C50.4801079,68.0233315 50.4363793,67.5894293 50.6576433,67.2789969 L50.7091194,67.2144742 C50.7091194,67.2144742 56.8456764,60.0965239 56.8456764,60.0965239 L56.855834,60.0990942 L56.855834,60.0990942 C56.8795072,60.0726603 56.9042336,60.0470542 56.9298488,60.0223749 Z" fill="#FFFFFF"></path>
            <path d="M77.287146,47.5383567 L77.3730129,47.6780795 C79.1800807,50.4832149 78.3708798,54.2219969 75.5657434,56.0290642 C72.7606424,57.8360005 69.0218272,57.0269306 67.2147584,54.2217947 C65.4570963,51.4932821 66.1727679,47.8752641 68.8074133,46.015759 L68.9530211,45.9160913 C71.5767425,44.0382739 75.2259769,44.6427635 77.1037946,47.2664839 C77.167478,47.3554007 77.2286054,47.4460414 77.287146,47.5383567 Z M39.5103459,44.3199923 C36.3656933,45.3919634 34.802185,48.7318559 35.739204,51.8423602 C36.811175,54.9870125 40.1510675,56.5505208 43.2615717,55.6135023 C46.4062242,54.5415311 47.9440779,51.159354 47.0326802,48.0912661 C47.0411873,48.0709605 47.0207255,48.0131462 46.98231,47.9436302 C46.0147235,44.9162073 42.9251663,43.3163843 39.9837954,44.1524677 C39.8487114,44.1182861 39.6796113,44.21909 39.5103459,44.3199923 Z" fill="#FF4C46"></path>
        </g>
    </g>
</svg>

<svg preserveAspectRatio="xMidYMid" viewBox="0 0 512 101" xmlns="http://www.w3.org/2000/svg">
  <path fill="#FF4C46" d="M137.084 79.534h-10.4V32.657h10.4V53.02h34.498V32.657h10.401v46.877h-10.4V61.809h-34.499v17.725Zm74.304 1.172c-6.885 0-12.427-1.783-16.626-5.347-4.2-3.564-6.299-8.277-6.299-14.136 0-5.86 2.1-10.572 6.3-14.137 4.198-3.564 9.74-5.347 16.625-5.347 6.933 0 12.5 1.783 16.7 5.347 4.199 3.565 6.3 8.277 6.3 14.137 0 5.859-2.101 10.572-6.3 14.136-4.2 3.564-9.767 5.347-16.7 5.347Zm0-8.057c4.004 0 7.227-1.05 9.67-3.15 2.44-2.099 3.661-4.858 3.661-8.276 0-3.467-1.221-6.25-3.662-8.35-2.442-2.1-5.665-3.15-9.669-3.15-3.955 0-7.154 1.062-9.595 3.186-2.442 2.125-3.662 4.897-3.662 8.314 0 3.418 1.22 6.177 3.662 8.276 2.441 2.1 5.64 3.15 9.595 3.15Zm50.563 8.057c-6.886 0-12.428-1.783-16.626-5.347-4.2-3.564-6.3-8.277-6.3-14.136 0-5.86 2.1-10.572 6.3-14.137 4.198-3.564 9.74-5.347 16.626-5.347 6.933 0 12.5 1.783 16.7 5.347 4.198 3.565 6.298 8.277 6.298 14.137 0 5.859-2.1 10.572-6.299 14.136-4.2 3.564-9.766 5.347-16.7 5.347Zm0-8.057c4.003 0 7.226-1.05 9.668-3.15 2.441-2.099 3.663-4.858 3.663-8.276 0-3.467-1.222-6.25-3.663-8.35-2.442-2.1-5.665-3.15-9.668-3.15-3.956 0-7.154 1.062-9.596 3.186-2.441 2.125-3.662 4.897-3.662 8.314 0 3.418 1.22 6.177 3.662 8.276 2.442 2.1 5.64 3.15 9.596 3.15Zm42.212 7.617c-4.502 0-7.072-2.062-8.458-3.938l-.08-.11c-1.343-1.869-2.408-4.307-2.447-9.568l-.001-16.195h-5.274v-7.544h6.739V32.657h8.936v10.254h10.546v7.544h-10.546v13.697c-.078 4.092.576 5.584 1.57 6.576 1.743 1.74 7.065.56 8.976-.658v7.937c-2.228 1.55-6.25 2.259-9.96 2.259Zm36.464.44c-6.495 0-13.038-.952-19.63-2.857V69.5c5.518 2.1 11.5 3.15 17.945 3.15l.761-.003c4.242-.03 7.309-.323 9.2-.877 2.002-.585 3.004-1.634 3.004-3.148 0-1.416-1.111-2.405-3.333-2.967-2.116-.534-4.675-.881-7.676-1.04l-.454-.022a115.284 115.284 0 0 1-9.595-.842c-3.199-.415-5.91-1.429-8.13-3.04-2.223-1.612-3.332-3.882-3.332-6.812 0-4.003 1.928-7.032 5.785-9.082 3.857-2.051 9.107-3.077 15.748-3.077 5.224 0 11.327.685 18.311 2.051v8.057c-6.006-1.269-11.744-1.904-17.212-1.904-8.302 0-12.451 1.27-12.451 3.809 0 1.27 1.121 2.16 3.368 2.673 2.128.486 4.672.83 7.633 1.03l.498.032c3.173.196 6.359.525 9.558.989 3.198.465 5.92 1.527 8.167 3.186 2.245 1.66 3.369 3.98 3.369 6.959 0 4.101-1.905 7.14-5.713 9.118-3.809 1.978-9.082 2.967-15.82 2.967Zm60.856-37.795h10.4v36.622h-11.425l1.465-15.088h-.587c-1.71 10.84-7.716 16.26-18.018 16.26-5.273-.098-9.13-1.818-11.572-5.164-2.398-3.284-3.619-8.724-3.662-16.32v-16.31h10.4v14.65c0 5.518.78 9.447 2.344 11.791 1.562 2.344 4.126 3.516 7.69 3.516 3.956 0 7.105-1.806 9.45-5.42 2.29-3.531 3.46-8.205 3.513-14.021l.002-10.516ZM426 39.391c-2.003 0-3.565-.5-4.688-1.501-1.123-1-1.684-2.478-1.684-4.431 0-1.953.56-3.417 1.684-4.395 1.123-.976 2.685-1.465 4.688-1.465 2.051 0 3.65.489 4.798 1.465 1.147.978 1.721 2.442 1.721 4.395 0 3.955-2.173 5.933-6.52 5.933Zm5.347 40.142h-10.401V42.911h10.401v36.622Zm58.607 1.173c-6.642 0-11.977-1.783-16.005-5.347-4.028-3.564-6.042-8.277-6.042-14.136 0-5.86 2.014-10.572 6.042-14.137 4.028-3.564 9.363-5.347 16.005-5.347 6.542 0 11.828 1.527 15.857 4.578 3.95 2.994 6.01 6.914 6.181 11.763l.008.35v5.942h-34.132c.586 2.98 2.136 5.128 4.651 6.446 2.515 1.318 6.214 1.977 11.097 1.977l.69-.004c5.976-.075 8.798-1.066 11.835-2.193l.29-.118c.968-.403 3.657-1.585 3.957-1.713v8.35c-3.662 1.416-6.86 2.369-9.595 2.856-2.735.488-6.348.733-10.84.733Zm-12.306-21.388 24.464-.586c-.146-3.222-1.197-5.53-3.15-6.922-1.954-1.391-4.956-2.087-9.008-2.087-3.907 0-6.849.745-8.826 2.234-1.978 1.49-3.138 3.944-3.48 7.361Zm-23.102 20.948c-4.502 0-7.072-2.062-8.459-3.938l-.08-.11c-1.342-1.869-2.407-4.307-2.446-9.568l-.002-16.195h-5.273v-7.544h6.738V32.657h8.936v10.254h10.547v7.544H453.96v13.697c-.077 4.092.577 5.584 1.57 6.576 1.743 1.74 7.066.56 8.977-.658v7.937c-2.228 1.55-6.25 2.259-9.961 2.259Z"/>
  <path fill="#FF4C46" d="M10.057.833a1.25 1.25 0 0 1 1.507-.789l.089.028 33.761 12.834a27.952 27.952 0 0 1 4.74-.382c5.893.04 11.457 1.364 17.037 4.66l32.474-2.689a1.05 1.05 0 0 1 .67 1.896l-.092.06-20.286 11.816c.327.376.656.76.985 1.152 9.242 11.02 14.864 26.966 17.55 36.186a18.294 18.294 0 0 1-2.788 15.9c-6.035 8.26-18.906 19.505-44.158 19.326-27.568-.191-41.808-13.907-48.65-22.336A13.103 13.103 0 0 1 .852 65.632l.512-1.338c4.037-10.5 11.558-28.738 17.583-35.519 3.627-4.078 7.81-7.598 12.228-10.31L10.439 2.215a1.25 1.25 0 0 1-.382-1.382Z"/>
  <path fill="#FFF" d="M50.761 72.216a.22.22 0 0 1 .286-.125 17.327 17.327 0 0 0 14.47 1.285l.274-.102a.21.21 0 0 1 .259.315l-6.043 6.654a1.05 1.05 0 0 1-1.463.085c-2.235-1.92-5.967-5.932-7.755-7.902a.22.22 0 0 1-.028-.21Zm8.39-34.08c15.627-10.873 24.1-1.435 28.853 9.035 3.434 7.545 4.65 21.672-6.498 23.837-8.54 1.665-16.43-6.986-22.266-15.064a1.85 1.85 0 0 0-2.989-.008l-.238.33c-3.994 5.602-13.52 20.83-27.617 16.975-13.603-3.723-16.592-19.025-10.935-29.603 8.371-15.95 20.6-21.146 41.69-5.502ZM56.93 60.022a1.419 1.419 0 0 1 1.93-.034l.078.076 7.468 8.51a.755.755 0 0 1-.22 1.17 16.812 16.812 0 0 1-7.248 1.829c-3.32-.027-6.719-2.231-8.11-3.244l-.057-.046a.757.757 0 0 1-.113-1.004l.051-.065 6.137-7.117.01.002c.024-.026.048-.052.074-.077Z"/>
  <path fill="#FF4C46" d="m77.287 47.538.086.14a6.042 6.042 0 1 1-8.566-1.662l.146-.1a5.842 5.842 0 0 1 8.334 1.622ZM39.51 44.32c-3.144 1.072-4.708 4.412-3.77 7.522 1.071 3.145 4.411 4.709 7.522 3.772 3.144-1.072 4.682-4.455 3.77-7.523.01-.02-.011-.078-.05-.147-.967-3.028-4.057-4.628-6.998-3.792-.135-.034-.304.067-.474.168Z"/>
</svg>
